dist/campaign/images/quotes-employer.svg

<svg width="33" height="29" viewBox="0 0 33 29" fill="none" xmlns="http://www.w3.org/2000/svg">
<path d="M15.3647 6.02828C15.1685 6.31108 14.9526 6.45263 14.7171 6.45263C10.6748 7.05885 8.65367 8.97855 8.65367 12.2117H12.2447C12.8726 12.2117 13.1865 12.535 13.1865 13.1817V27.1247C13.1865 27.7714 12.8726 28.0947 12.2447 28.0947H0.941897C0.313967 28.0947 0 27.7714 0 27.1247V15.061C0 5.56351 4.51325 0.572296 13.5398 0.0873198C13.7752 0.0469051 13.9813 0.107527 14.1579 0.269185C14.3345 0.430844 14.462 0.632917 14.5405 0.875405L15.4824 5.30081C15.5609 5.58371 15.5217 5.8262 15.3647 6.02828ZM32.7898 6.02828C32.6328 6.31108 32.4169 6.45263 32.1425 6.45263C28.1787 7.05885 26.1572 8.97855 26.079 12.2117H29.67C29.9445 12.2117 30.1802 12.3027 30.3764 12.4845C30.5727 12.6664 30.6711 12.8988 30.6711 13.1817V27.1247C30.6711 27.4076 30.5729 27.64 30.3764 27.8219C30.18 28.0038 29.9446 28.0947 29.67 28.0947H18.4258C18.1513 28.0947 17.9156 28.0038 17.7194 27.8219C17.5232 27.64 17.4251 27.4076 17.4251 27.1247V15.061C17.4251 5.56351 21.958 0.572296 31.0237 0.0873198C31.2589 0.0469051 31.4652 0.107527 31.6418 0.269185C31.8184 0.430844 31.9461 0.632917 32.0245 0.875405L32.9664 5.30081C33.0449 5.58371 32.986 5.8262 32.7898 6.02828Z" fill="#0478FF"/>
</svg>

<?xml version="1.0" encoding="utf-8"?>
<!-- Generator: Adobe Illustrator 23.0.2, SVG Export Plug-In . SVG Version: 6.00 Build 0)  -->
<svg version="1.1" id="Layer_1" xmlns="http://www.w3.org/2000/svg" xmlns:xlink="http://www.w3.org/1999/xlink" x="0px" y="0px"
	 viewBox="0 0 33 29" style="enable-background:new 0 0 33 29;" xml:space="preserve">
<style type="text/css">
	.st0{fill:#28A197;}
</style>
<path class="st0" d="M15.4,6c-0.2,0.3-0.4,0.4-0.6,0.4c-4,0.6-6.1,2.5-6.1,5.8h3.6c0.6,0,0.9,0.3,0.9,1v13.9c0,0.6-0.3,1-0.9,1H0.9
	c-0.6,0-0.9-0.3-0.9-1V15.1c0-9.5,4.5-14.5,13.5-15c0.2,0,0.4,0,0.6,0.2c0.2,0.2,0.3,0.4,0.4,0.6l0.9,4.4C15.6,5.6,15.5,5.8,15.4,6z
	 M32.8,6c-0.2,0.3-0.4,0.4-0.6,0.4c-4,0.6-6,2.5-6.1,5.8h3.6c0.3,0,0.5,0.1,0.7,0.3c0.2,0.2,0.3,0.4,0.3,0.7v13.9
	c0,0.3-0.1,0.5-0.3,0.7c-0.2,0.2-0.4,0.3-0.7,0.3H18.4c-0.3,0-0.5-0.1-0.7-0.3c-0.2-0.2-0.3-0.4-0.3-0.7V15.1
	c0-9.5,4.5-14.5,13.6-15c0.2,0,0.4,0,0.6,0.2c0.2,0.2,0.3,0.4,0.4,0.6L33,5.3C33,5.6,33,5.8,32.8,6z"/>
</svg>
